assets/svg/1f509.svg

<svg xmlns="http://www.w3.org/2000/svg" viewBox="0 0 64 64" enable-background="new 0 0 64 64" xmlns:xlink="http://www.w3.org/1999/xlink"><path fill="#42ade2" d="m44.648 32c0 5.04-3.207 9.346-7.688 10.982l2.916 2.915c5.1-2.548 8.611-7.818 8.611-13.897 0-6.099-3.533-11.383-8.66-13.922l-2.922 2.92c4.511 1.623 7.743 5.94 7.743 11"/><path fill="#8b979e" d="M11.128,44.999H3.783C1.694,44.999,0,43.416,0,41.462V22.537C0,20.583,1.694,19,3.783,19h7.346V44.999z" id="0"/><use xlink:href="#0"/><path fill="#b0bdc6" d="M29.836,2.247C31.143,0.941,11.128,19,11.128,19v26c0,0,10.272,7.855,18.708,16.753V2.247z"/><g fill="#333"><path d="m33 25.454v13.09c3.863 0 6.996-2.932 6.996-6.545 0-3.617-3.133-6.547-6.996-6.547"/><path d="m33 62.52c0 .817-.709 1.481-1.584 1.481-.874 0-1.583-.664-1.583-1.481v-61.04c-.001-.818.708-1.481 1.582-1.481.875 0 1.584.663 1.584 1.481v61.04"/></g><path fill="#8b979e" d="m11.128 40.18h-7.345c-2.089 0-3.783-.997-3.783-2.227v-11.914c0-1.23 1.693-2.227 3.782-2.227h7.346v16.368"/><path fill="#b0bdc6" d="m11.128 40.18h-7.345c-2.089 0-3.783-.997-3.783-2.227v-11.914c0-1.23 1.693-2.227 3.782-2.227h7.346v16.368"/><path fill="#dfe9ef" d="m29.836 13.269l-18.708 10.547v16.374l18.708 10.54z"/><path fill="#8b979e" d="m29.836 13.269h3.167v37.461h-3.167z"/><path fill="#333" d="m3.783 19h7.346v25.999h-7.346z"/></svg>

<svg xmlns="http://www.w3.org/2000/svg" width="64" height="64" viewBox="0 0 64 64"><path fill="#42ADE2" d="M44.648 32.001c0 5.04-3.207 9.346-7.688 10.982l2.916 2.915c5.1-2.548 8.611-7.818 8.611-13.897 0-6.099-3.533-11.383-8.66-13.922l-2.922 2.92c4.511 1.623 7.743 5.94 7.743 11.002z"/><path fill="#8B979E" d="M11.128 44.999H3.783C1.694 44.999 0 43.416 0 41.462V22.537C0 20.583 1.694 19 3.783 19h7.346v25.999z"/><path fill="#8B979E" d="M11.128 44.999H3.783C1.694 44.999 0 43.416 0 41.462V22.537C0 20.583 1.694 19 3.783 19h7.346v25.999z"/><path fill="#B0BDC6" d="M29.836 2.247C31.143.941 11.128 19 11.128 19v26S21.4 52.855 29.836 61.753V2.247z"/><path fill="#333" d="M33.004 25.454v13.092c3.863 0 6.996-2.932 6.996-6.545 0-3.617-3.133-6.547-6.996-6.547zM33.004 62.519c0 .817-.709 1.481-1.584 1.481-.874 0-1.583-.664-1.583-1.481V1.481C29.836.663 30.545 0 31.419 0c.875 0 1.584.663 1.584 1.481v61.038z"/><path fill="#8B979E" d="M11.128 40.184H3.783C1.694 40.184 0 39.187 0 37.957V26.043c0-1.23 1.693-2.227 3.782-2.227h7.346v16.368z"/><path fill="#B0BDC6" d="M11.128 40.184H3.783C1.694 40.184 0 39.187 0 37.957V26.043c0-1.23 1.693-2.227 3.782-2.227h7.346v16.368z"/><path fill="#DFE9EF" d="M29.836 13.269L11.128 23.816v16.369L29.836 50.73z"/><path fill="#8B979E" d="M29.836 13.269h3.167V50.73h-3.167z"/><path fill="#333" d="M3.783 19h7.346v25.999H3.783z"/></svg>
